content/culture/awwwards.svg

<svg xmlns="http://www.w3.org/2000/svg" width="19" height="26" viewBox="0 0 19 26" fill="none">
  <path d="M12.8201 13.3281L5.35857 17.7074C4.92268 17.9552 4.64062 18.4785 4.64062 19.0019V25.9976L18.3073 17.4595C18.4868 17.3493 18.6406 17.1841 18.7432 17.0188L12.8201 13.3281V13.3281Z" fill="black"/>
  <path d="M8.71755 2.39619L4.64062 0V4.76483L8.71755 2.39619Z" fill="black"/>
  <path d="M18.1797 8.01721L14.8976 6.17188V6.50238C14.8976 7.30111 14.5387 8.0723 13.8976 8.48543L10.1797 10.8265L19.0002 16.3075V9.31171C19.0002 8.76086 18.6156 8.2651 18.1797 8.01721V8.01721Z" fill="black"/>
  <path d="M13.6667 7.77065L0 16.3088V9.31303C0 8.76218 0.282051 8.26642 0.717949 8.01853L14.359 0.03125V6.5037C14.3333 7.02701 14.0769 7.49523 13.6667 7.77065V7.77065Z" fill="black"/>
  <path d="M13.6667 7.77065L0 16.3088V9.31303C0 8.76218 0.282051 8.26642 0.717949 8.01853L14.359 0.03125V6.5037C14.3333 7.02701 14.0769 7.49523 13.6667 7.77065V7.77065Z" fill="black"/>
  <path d="M13.6667 7.77065L0 16.3088V9.31303C0 8.76218 0.282051 8.26642 0.717949 8.01853L14.359 0.03125V6.5037C14.3333 7.02701 14.0769 7.49523 13.6667 7.77065V7.77065Z" fill="black"/>
  <path d="M3.8715 19.0019C3.8715 18.1756 4.30739 17.4044 4.9997 16.9913L8.71765 14.8154L6.17919 13.3281L0.230469 17.0188C0.333033 17.2116 0.486879 17.3493 0.666366 17.4595L3.8715 19.4425V19.0019Z" fill="black"/>
  <path d="M10 23.4052L14.1282 25.9942V20.8438L10 23.4052Z" fill="black"/>
  <path d="M12.8201 13.3281L5.35857 17.7074C4.92268 17.9552 4.64062 18.4785 4.64062 19.0019V25.9976L18.3073 17.4595C18.4868 17.3493 18.6406 17.1841 18.7432 17.0188L12.8201 13.3281V13.3281Z" fill="black"/>
</svg>

<?xml version="1.0" encoding="utf-8"?>
<!-- Generator: Adobe Illustrator 27.7.0, SVG Export Plug-In . SVG Version: 6.00 Build 0)  -->
<svg version="1.1" id="Layer_1" xmlns="http://www.w3.org/2000/svg" xmlns:xlink="http://www.w3.org/1999/xlink" x="0px" y="0px"
	 viewBox="0 0 19 26" style="enable-background:new 0 0 19 26;" xml:space="preserve">
<style type="text/css">
	.st0{fill:#FF3C00;}
</style>
<path class="st0" d="M12.8,13.3l-7.5,4.4C4.9,18,4.6,18.5,4.6,19v7l13.7-8.5c0.2-0.1,0.3-0.3,0.4-0.4L12.8,13.3L12.8,13.3z"/>
<path class="st0" d="M8.7,2.4L4.6,0v4.8L8.7,2.4z"/>
<path class="st0" d="M18.2,8l-3.3-1.8v0.3c0,0.8-0.4,1.6-1,2l-3.7,2.3l8.8,5.5v-7C19,8.8,18.6,8.3,18.2,8L18.2,8z"/>
<path class="st0" d="M13.7,7.8L0,16.3v-7c0-0.6,0.3-1,0.7-1.3l13.6-8v6.5C14.3,7,14.1,7.5,13.7,7.8L13.7,7.8z"/>
<path class="st0" d="M13.7,7.8L0,16.3v-7c0-0.6,0.3-1,0.7-1.3l13.6-8v6.5C14.3,7,14.1,7.5,13.7,7.8L13.7,7.8z"/>
<path class="st0" d="M13.7,7.8L0,16.3v-7c0-0.6,0.3-1,0.7-1.3l13.6-8v6.5C14.3,7,14.1,7.5,13.7,7.8L13.7,7.8z"/>
<path class="st0" d="M3.9,19c0-0.8,0.4-1.6,1.1-2l3.7-2.2l-2.5-1.5L0.2,17c0.1,0.2,0.3,0.3,0.4,0.4l3.2,2V19z"/>
<path class="st0" d="M10,23.4l4.1,2.6v-5.2L10,23.4z"/>
<path class="st0" d="M12.8,13.3l-7.5,4.4C4.9,18,4.6,18.5,4.6,19v7l13.7-8.5c0.2-0.1,0.3-0.3,0.4-0.4L12.8,13.3L12.8,13.3z"/>
</svg>
